!!!COA: Josquin des Prez
!!!CDT: ~1450-1521/08/27
!!!COA2: Ockeghem
!!!COA3: Bolkim
!!!OTL@@FRA: En l'ombre d'ung buissonnet
!!!AGN: Chanson
!!!SCT: NJE 28.13
!!!SCA: New Josquin Edition 28.13
!!!voices: 4
**kern	**kern	**kern	**kern
*staff4	*staff3	*staff2	*staff1
*Ivox	*Ivox	*Ivox	*Ivox
*I"Bassus	*I"Tenor	*I"Altus	*I"Superius
*I'B	*I'T	*I'A	*I'S
*clefF4	*clefGv2	*clefGv2	*clefG2
*k[]	*k[b-]	*k[]	*k[b-]
*M2/1	*M2/1	*M2/1	*M2/1
*met(C|)	*met(C|)	*met(C|)	*met(C|)
=1-	=1-	=1-	=1-
!	!	!	!LO:TX:Z=10:t=4-ex-2 canon (B/T & A/S both at the upper fourth)
1D	0r	1d	0r
1D	.	1d	.
=2	=2	=2	=2
1G	1G	1e	1g
1G	1G	[1d	1g
=3	=3	=3	=3
0C	1c	2d\]	1a
.	.	2c\	.
.	1c	[1c	[1g
=4	=4	=4	=4
0D	0F	1c]	2g/]
.	.	.	2f/
.	.	1B	[1f
=5	=5	=5	=5
0C	0G	0c	1f]
.	.	.	1e
=6	=6	=6	=6
0r	0F	1r	0f
.	.	[1d	.
=7	=7	=7	=7
0C	0r	2d\]	1r
.	.	2c\	.
.	.	[1c	[1g
=8	=8	=8	=8
1D	0F	1c]	2g/]
.	.	.	2f/
1D	.	1B	[1f
=9	=9	=9	=9
0C	1G	0c	1f]
.	1G	.	1e
=10	=10	=10	=10
0F	0F	0r	0f
=11	=11	=11	=11
0r	0B-	1.f	0r
.	.	2f\	.
=12	=12	=12	=12
1D	0r	1f	1.b-
1D	.	1f	.
.	.	.	2b-\
=13	=13	=13	=13
1G	1G	1e	1b-
1G	1G	1g	1b-
=14	=14	=14	=14
1A	1c	1f	1a
1A	1c	[1e	1cc
=15	=15	=15	=15
0D	1d	2e\]	1b-
.	.	2d\	.
.	1d	[1d	[1a
=16	=16	=16	=16
0E	0G	1d]	2a/]
.	.	.	2g/
.	.	1c#i	[1g
=17	=17	=17	=17
0D	0A	0d	1g]
.	.	.	1f#i
=18	=18	=18	=18
0r	0G	0r	0g
=19	=19	=19	=19
1D	0r	1d	0r
1D	.	1d	.
=20	=20	=20	=20
1G	1G	1e	1g
1G	1G	[1d	1g
=21	=21	=21	=21
0C	1c	2d\]	1a
.	.	2c\	.
.	1c	[1c	[1g
=22	=22	=22	=22
0D	0F	1c]	2g/]
.	.	.	2f/
.	.	1B	[1f
=23	=23	=23	=23
0C	0G	0c	1f]
.	.	.	1e
=24	=24	=24	=24
0r	0F	1r	0f
.	.	[1d	.
=25	=25	=25	=25
0C	0r	2d\]	1r
.	.	2c\	.
.	.	[1c	[1g
=26	=26	=26	=26
1D	0F	1c]	2g/]
.	.	.	2f/
1D	.	1B	[1f
=27	=27	=27	=27
0C	1G	0c	1f]
.	1G	.	1e
=28	=28	=28	=28
0F	0F	0r	0f
=29	=29	=29	=29
0r	0B-	1.f	0r
.	.	2f\	.
=30	=30	=30	=30
1D	0r	1f	1.b-
1D	.	1f	.
.	.	.	2b-\
=31	=31	=31	=31
1G	1G	1e	1b-
1G	1G	1g	1b-
=32	=32	=32	=32
1A	1c	1f	1a
1A	1c	[1e	1cc
=33	=33	=33	=33
0D	1d	2e\]	1b-
.	.	2d\	.
.	1d	[1d	[1a
=34	=34	=34	=34
0E	0G	1d]	2a/]
.	.	.	2g/
.	.	1c#i	[1g
=35	=35	=35	=35
0D	0A	1d	1g]
.	.	1f	1f#i
=36	=36	=36	=36
0G	0G	1e	1g
.	.	1g	1b-
=37	=37	=37	=37
1A	0c	1f	1a
1A	.	[1e	1cc
=38	=38	=38	=38
1F	1d	2e\]	1b-
.	.	2d\	.
1D	1d	[1d	[1a
=39	=39	=39	=39
0E	1B-	1d]	2a/]
.	.	.	2g/
.	1G	1c#i	[1g
=40	=40	=40	=40
0D	0A	[0dl	1g]
.	.	.	1f#i
=41	=41	=41	=41
0GGl	0Gl	0d]	0gl
==	==	==	==
*-	*-	*-	*-
!!!SMS: FlorC 2442: Josquin dez pres
!!!SMS: HerdF 9820: Okenghem
!!!SMS: MunBS 1516: anon.
!!!SMS: ParisBNF 2245: Josquin
!!!SMS: RomeC 2856: Bolkim
!!!SMS: Antico 1520: anon.
!!!SMS: Attaingnant [c. 1528]: anon.
!!!SMS: Petrucci 1504: Josquin
!!!RDF**kern: l=long note in original notation
!!!RDF**kern: i=editorial accidental
!!!ENC: Jesse Rodin; Victoria Chang 2011/08/09/
!!!END: 2011/08/09/
!!!EED: Jesse Rodin
!!!EEV: 2011/08/11/
!!attribution-level@Jos: 3 (tricky)
!!!ONB: Translated from MusicXML and edited on 2011/08/11/ by Craig Sapp
!!muse2ps:  C^@{COM}{/}@{COA}?\n@{SCT}^v90,90,90,150I150Q16
